X: 42507
T: What's The Craic?
R: reel
M: 4/4
K: Amixolydian
ABEF A3B|ceed cBA2|GADE GFGA|BddB eBdB|
ABEF A3B|ceed cBA2|GADE GFGA|BedB e2dB:|
AeeA fAeA|AeeA fAeA|dedB GABG|DEGB eBdB|
AeeA fAeA|AeeA fAeA|dedB GABd|gedB e2dB:|

